X: 7
T: Scotch Mary
R: reel
M: 4/4
L: 1/8
K: Ador
|:GA|BGGG (3BAGdc | BGGE =F3c | BGGG BGdc | BGAF G2 :|(3ABc|dgge dedc | Bcde =f3e | dgge dedc | BGAF G2(3ABc ||dgge dedc | Bcde =f2e=f | ge(3=fed ecdc | BGAF G4 |


Tune 96	Setting 27027

